X: 22389
T: Lad O'Beirne's
R: reel
M: 4/4
K: Gmajor
|:BGG/G/G BAGB|AcBG {B}AGEG|DGG/G/D GABd|egdg {d}edge|
dBB/B/B dBGB|cEE/E/E GE D2|DE/F/GA BABc|dBAc BGG/G/G:|
|:d2 Be de/d/B^d|egdg {d}edge|dBB/B/B dBGB|cEE/E/E GE D2|
Bdd/d/d Bdef|gcfa gedB|DE/F/GA BABc|dBAc BGG/G/G:|

